assets/images/landmark-dome.svg

<svg fill="none" height="24" viewBox="0 0 24 24" width="24" xmlns="http://www.w3.org/2000/svg"><path d="m18 10c0-3.31371-2.6863-6-6-6m-6 6c0-3.31371 2.68629-6 6-6m0 0v-1m-9 7h18m-18 11h18m-18-3h3m0 0h4m-4 0v-5m4 5h4m-4 0v-5m4 5h4m-4 0v-5m4 5h3m-3 0v-5" stroke="#000" stroke-linecap="round" stroke-linejoin="round" stroke-width="2"/></svg>

<?xml version="1.0" encoding="utf-8"?><!-- Uploaded to: SVG Repo, www.svgrepo.com, Generator: SVG Repo Mixer Tools -->
<svg width="800px" height="800px" viewBox="0 0 24 24" fill="none" xmlns="http://www.w3.org/2000/svg">
<path d="M18 10C18 6.68629 15.3137 4 12 4M6 10C6 6.68629 8.68629 4 12 4M12 4V3M3 10H21M3 21H21M3 18H6M6 18H10M6 18V13M10 18H14M10 18V13M14 18H18M14 18V13M18 18H21M18 18V13" stroke="#000000" stroke-width="2" stroke-linecap="round" stroke-linejoin="round"/>
</svg>
